X:1
T: Olive's Farewell
C:Bruce Shawyer
R:Strathspey
Q:128
K:C
M:4/4
L:1/16
|:c2|Bc3 c3G e3c c3c|Gc3 c3G e6e2|ef3 f3c Ac3 c3A|Bd3 d3B G2z2 G2z2|
Bc3 c3G e3c c3c|Gc3 c3G e6e2|ef3 f3f Bc3 c3c|d3B G3B c4z4|
cA3 A3G EA3 A3B|cA3 A3c e6e2|dB3 B3A GE3 E3G|^FD3 D3F E4z4|
cA3 A3G FA3 A3c|^FA3 A3F G2z2 G2z2|EF3 F3F Bc3 c3c|d3B G3B|c6:|

